X:1
T:Title
%%score { ( 1 3 ) | 2 }
L:1/8
Q:1/4=96
M:4/4
K:A
V:1 treble nm="Grand Piano"
V:3 treble 
V:2 bass 
V:1
 [CEA]2 [A,CE]2 [CEA]2 [A,CE]2 | [A,DF]2 [DG]2 [CA]4 | B2 G2 B2 [EG]2 | [EA]2 B2 c4 | %4
w: B.~E.~Warren * * *||||
 e>d c>B A2 E2 | [Bd]>[Ac] [GB]>[FA] [EG]2 [^DF]2 | E>F G>A B>A [Ac]>B |[M:7/8] d2 G2 [CEA]3 | %8
w: ||||
[M:1/4] e>c |[M:4/4] e6 z2 | c6 z2 | [GB]>[GB] [GB]>[Ac] [GB]>[FA] [EG]>[^DF] | E>F G>A B4 | %13
w: |||||
 A>A A>B c2 A2 | c>c c>d e2 c2 | [Bd]>[Ac] [GB]>[FA] G>F E>[Ge] | [Ge]2 [DEG]>[DEG] [CEA]4 |] %17
w: ||||
V:2
 A,,2 A,,2 A,,2 A,,2 | D,2 E,2 [A,,E,]4 | [E,G,E]2 [E,B,E]2 [E,DE]2 [D,B,]2 | %3
 [C,A,]2 [E,G,E]2 [A,E]4 | [A,CE]>[A,B,E] [A,E]>[A,DE] [A,CE]2 [A,C]2 | %5
 [E,E]>[E,E] [E,E]>[E,B,] [B,,B,]2 [B,,A,]2 | %6
 [E,G,]>[E,A,D] [E,B,D]>[E,A,C] [E,DE]>[E,CE] [E,E]>[E,DE] |[M:7/8] [E,B,E]2 [E,DE]2 A,,3 | %8
[M:1/4][K:treble] c>A |[M:4/4] c2 [A,C]>[A,C] [A,C]2 A>E | A2 [A,E]>[A,E] [A,E]2 z2 | %11
 [E,E]>[E,E] [E,E]>[E,E] [E,E]>[E,B,] [B,,B,]>[B,,A,] | [E,G,]>[E,A,E] [E,B,E]>[E,CE] [E,DE]4 | %13
 [A,CE]>[A,CE] [A,CE]>[A,DE] [A,EA]2 [A,CE]2 | [A,E]>[A,E] [A,E]>[A,B,E] [A,CE]2 [A,EA]2 | %15
 [E,E]2 [E,E]>[E,B,] [E,B,E]>[E,A,E] [E,G,]>[E,B,] | [E,B,]2 E,>E, A,,4 |] %17
V:3
 x8 | x8 | x8 | x8 | x8 | x8 | x8 |[M:7/8] x7 |[M:1/4] x2 |[M:4/4] z2 A>A A2 c>A | z2 A>A A2 z2 | %11
 x8 | x8 | x8 | x8 | x8 | x8 |] %17

